X: 26056
T: McCarthy's
R: reel
M: 4/4
K: Adorian
|:cB|AD D2 FGAB|c3B cAGc|AD D2 FGAB|cAGE D2cB|
AD D2 FGAB|c3B cdeg|fage d^cAG|1 FAGE D2:|2 FAGE D4||
d2fd afdf|g2fg edB^c|d2fd afdf|g2fg Beef|
gfe^c d2fd|d2fd e^cAg|fage d^cAG|1 FAGE D4:|2 FAGE D2z2||

